X:645
%%etbk:tnset id:389,pos:2,rep:3x,ant:
%%etbk:wsite https://thesession.org/tunes/1070
%%etbk:pldat 2015-11-25T16:59,2015-08-18T17:06,2015-04-06T16:06,2015-03-31T17:59
T: The Monaghan Twig
Z: Piano Box Version by Martin Fleischmann
H: Created 2015-03-27 /  Last Modified 2015-08-18
R: reel
M: 4/4
L: 1/8
K: Amix
|:"A"!3!cAAB !3!cded|!3!c!1!A!3!A!2!G !1!~E3!4!B|!3!cAAB !3!cded|"G"!2!B!1!A!1!GB !4!d2ed:|
"A"!3!c!1!def !4!gfed| !2!c!1!def !2!~e3d|!2!c!1!def !4!~g3e|"G"!1!d!2!B!1!GB !4!d2!5!ed|
"A"!3!cded cded|!3!cAAB !3!c!1!def|"G"!4!~g3e deed|!2!BAGB d2ed||


